!!!!SEGMENT: pl-wtm--r-1543--007_stefani-jozef--msza-in-f-agnus-dei.krn
!!!cenid: 18xx:1791
!!!COM: Stefani, Józef
!!!COM-rismID:
!!!CDT: 1800/04/16-1876/03/19
!!!CNT: Polish
!!!OPR: Msza in F
!!!OTL: Agnus Dei
!!!OMV: 007
!!!PDT:
!!!AGN: Sacred; Mass
!!!SMS-siglum: PL-Wtm
!!!SMS-shelfmark: R 1543
!!!SMS-shelfwork: 001-007 M
!!!SMS-variant:
!!!SMS-altvar:
!!!NIFC-rismSourceID: 1001120491
!!!NIFC-islandoraID: pl-wtm:26483
!!!URL-pdf-islandora: https://repozytorium.nifc.pl/islandora/object/pl-wtm%3A26483/datastream/PDF/view
!!!URL-scan: https://polish.musicsources.pl/pl/lokalizacje/galeria/rekopisy/6344 @EN{Scan on Polish Music Herritage in Open Access Website} @PL{Skany w portalu Dziedzictwo Muzyki Polskiej w otwartym dostępie}
!!!ONB-nifc: UWAGA: części Mszy: 1. Kyrie, 2. Gloria, 3. Graduale, 4. Credo, 5. Offertorium, 6. Sanctus, 7. Agnus Dei, 8. Dona nobis
!!!OMD: Andante
!!!AIN: 1 alto 4 clars 1 cor 3 empty 1 fagot 1 flt 1 oboe 1 organ 1 soprn 1 tenor 1 timpa 1 tromp 1 tromt
!!!key:
**kern	**kern	**kern	**text	**text	**dynam	**kern	**kern	**kern	**text	**text	**dynam	**kern	**dynam	**kern	**dynam	**kern	**kern	**dynam	**kern	**dynam	**kern	**dynam	**kern	**dynam	**kern	**dynam	**kern	**dynam	**kern	**dynam	**kern	**kern	**dynam	**kern	**dynam
*part18	*part18	*part17	*part17	*part17	*part17	*part16	*part15	*part14	*part14	*part14	*part14	*part13	*part13	*part12	*part12	*part11	*part10	*part10	*part9	*part9	*part8	*part8	*part7	*part7	*part6	*part6	*part5	*part5	*part4	*part4	*part3	*part2	*part2	*part1	*part1
*staff19	*staff18	*staff17	*staff17	*staff17	*	*staff16	*staff15	*staff14	*staff14	*staff14	*	*staff13	*	*staff12	*	*staff11	*staff10	*	*staff9	*	*staff8	*	*staff7	*	*staff6	*	*staff5	*	*staff4	*	*staff3	*staff2	*	*staff1	*
*	*	*group1	*	*	*	*group1	*group1	*group1	*	*	*	*	*	*	*	*	*	*	*	*	*	*	*	*	*	*	*	*	*	*	*	*	*	*	*
*>[A,A1,A,A2]	*[A,A1,A,A2]	*[A,A1,A,A2]	*[A,A1,A,A2]	*[A,A1,A,A2]	*[A,A1,A,A2]	*[A,A1,A,A2]	*[A,A1,A,A2]	*[A,A1,A,A2]	*[A,A1,A,A2]	*[A,A1,A,A2]	*[A,A1,A,A2]	*[A,A1,A,A2]	*[A,A1,A,A2]	*[A,A1,A,A2]	*[A,A1,A,A2]	*[A,A1,A,A2]	*[A,A1,A,A2]	*[A,A1,A,A2]	*[A,A1,A,A2]	*[A,A1,A,A2]	*[A,A1,A,A2]	*[A,A1,A,A2]	*[A,A1,A,A2]	*[A,A1,A,A2]	*[A,A1,A,A2]	*[A,A1,A,A2]	*[A,A1,A,A2]	*[A,A1,A,A2]	*[A,A1,A,A2]	*[A,A1,A,A2]	*[A,A1,A,A2]	*[A,A1,A,A2]	*[A,A1,A,A2]	*[A,A1,A,A2]	*[A,A1,A,A2]
*>A	*>A	*>A	*>A	*>A	*>A	*	*>A	*>A	*>A	*>A	*>A	*>A	*>A	*>A	*>A	*>A	*>A	*>A	*>A	*>A	*>A	*>A	*>A	*>A	*>A	*>A	*>A	*>A	*>A	*>A	*>A	*>A	*>A	*>A	*>A
*Iorgan	*Iempty	*Iempty	*	*	*	*Itenor	*Ialto	*Isoprn	*	*	*	*Iempty	*	*Icor	*	*Itimpa	*Ifagot	*	*Iempty	*	*Itromt	*	*Itromp	*	*Iclars	*	*Iclars	*	*Iclars	*	*Iclars	*Ioboe	*	*Iflt	*
*I"Organo	*	*I"Baſso	*	*	*	*I"Tenore	*I"Alto	*I"Soprano	*	*	*	*	*	*I"Corni	*	*I"Timpani	*I"Fagotti	*	*	*	*I"Tromboni	*	*I"Trombe	*	*I"Clarinetto 2do in C	*	*I"Clarinetto 1mo in C	*	*I"Clarinetto Obligato in C.	*	*I"Petit Clarinet in F.	*I"Oboe	*	*I"Flauto	*
*clefF4	*clefG2	*clefF4	*	*	*	*clefC4	*clefG2	*clefG2	*	*	*	*clefG2	*	*clefG2	*	*clefF4	*clefF4	*	*clefF4	*	*clefC4	*	*clefG2	*	*clefG2	*	*clefG2	*	*clefG2	*	*clefG2	*clefG2	*	*clefG2	*
*	*	*	*	*	*	*	*	*	*	*	*	*ITrd4c7	*	*ITrd6c10	*	*	*	*	*	*	*	*	*	*	*	*	*	*	*	*	*ITrd-3c-5	*	*	*	*
*k[b-]	*k[b-]	*k[b-]	*	*	*	*k[b-]	*k[b-]	*k[b-]	*	*	*	*k[b-]	*	*k[f#c#]	*	*k[b-]	*k[b-]	*	*k[b-]	*	*k[b-]	*	*k[b-]	*	*k[b-]	*	*k[b-]	*	*k[b-]	*	*k[b-]	*k[b-]	*	*k[b-]	*
*F:	*F:	*F:	*	*	*	*F:	*F:	*F:	*	*	*	*F:	*	*F:	*	*F:	*F:	*	*F:	*	*F:	*	*F:	*	*F:	*	*F:	*	*F:	*	*F:	*F:	*	*F:	*
*M3/4	*M3/4	*M3/4	*	*	*	*M3/4	*M3/4	*M3/4	*	*	*	*M3/4	*	*M3/4	*	*M3/4	*M3/4	*	*M3/4	*	*M3/4	*	*M3/4	*	*M3/4	*	*M3/4	*	*M3/4	*	*M3/4	*M3/4	*	*M3/4	*
*all\right	*all\right	*all\right	*	*	*	*all\right	*all\right	*all\right	*	*	*	*all\right	*	*all\right	*	*all\right	*all\right	*	*all\right	*	*all\right	*	*all\right	*	*all\right	*	*all\right	*	*all\right	*	*all\right	*all\right	*	*all\right	*
=1!|:	=1!|:	=1!|:	=1!|:	=1!|:	=1!|:	=1!|:	=1!|:	=1!|:	=1!|:	=1!|:	=1!|:	=1!|:	=1!|:	=1!|:	=1!|:	=1!|:	=1!|:	=1!|:	=1!|:	=1!|:	=1!|:	=1!|:	=1!|:	=1!|:	=1!|:	=1!|:	=1!|:	=1!|:	=1!|:	=1!|:	=1!|:	=1!|:	=1!|:	=1!|:	=1!|:
*^	*^	*	*	*	*	*	*	*	*	*	*	*	*	*	*	*	*	*	*	*	*	*	*	*	*	*	*	*	*	*	*	*	*	*	*
!	!	!	!	!	!	!	!	!	!	!	!	!	!	!	!LO:DY:rj	!LO:TX:t=P:problem=Corni in D, brak znaków przykluczowych	!	!	!LO:TX:t=P:problem=mixed beam	!LO:DY:rj	!	!	!	!	!	!	!	!	!LO:TX:a:t=Col Clar. obli.	!LO:DY:rj	!	!LO:DY:rj	!	!	!LO:DY:rj	!LO:TX:t=P:problem=nazwy brakujących instrumentów zapisano zgodnie z częścią Kyrie (0002.jpg)	!
*	*2\right	*	*	*	*	*	*	*	*	*	*	*	*	*	*	*	*	*	*	*	*	*	*	*	*	*	*	*	*	*	*	*	*	*	*	*	*
4FF/	2.FF\	4a 4c/	2.f/	4F\	1.)_Pa-	Ba-	.	4c\	4f/	4a/	Pa-	.	.	[2.f [2.F/	p	2.r	.	2.ryy	8FF/L	p	2.r	.	2.r	.	2.r	.	(4c/	.	(y4a/yy	py	(4a/	p	2.r	(4cc 4a\	p	2.r	.
.	.	.	.	.	.	.	.	.	.	.	.	.	.	.	.	.	.	.	8F\J	.	.	.	.	.	.	.	.	.	.	.	.	.	.	.	.	.	.
*	*	*	*	*	*	*	*	*	*	*	*	*	*	*	*	*	*	*	*2\right	*	*	*	*	*	*	*	*	*	*	*	*	*	*	*	*	*	*
*	*	*	*	*	*	*	*	*	*	*	*	*	*	*	*	*	*	*	*tremolo	*	*	*	*	*	*	*	*	*	*	*	*	*	*	*	*	*	*
4F\	.	4b- 4d/	.	4F\	-daj-	-ran-	.	4d\	4f/	4b-/	-daj-	.	.	.	.	.	.	.	8F\L	.	.	.	.	.	.	.	4d/	.	4b-/yy	.	4b-/	.	.	4dd 4b-\	.	.	.
.	.	.	.	.	.	.	.	.	.	.	.	.	.	.	.	.	.	.	8F\	.	.	.	.	.	.	.	.	.	.	.	.	.	.	.	.	.	.
4F\	.	4a 4c/	.	4F\	-cie	-ku	.	4c\	4f/	4a/	-cie	.	.	.	.	.	.	.	8F\	.	.	.	.	.	.	.	4c/)	.	4a/)yy	.	4a/)	.	.	4cc 4a\)	.	.	.
.	.	.	.	.	.	.	.	.	.	.	.	.	.	.	.	.	.	.	8F\J	.	.	.	.	.	.	.	.	.	.	.	.	.	.	.	.	.	.
*	*	*	*	*	*	*	*	*	*	*	*	*	*	*	*	*	*	*	*Xtremolo	*	*	*	*	*	*	*	*	*	*	*	*	*	*	*	*	*	*
*	*	*v	*v	*	*	*	*	*	*	*	*	*	*	*	*	*	*	*	*	*	*	*	*	*	*	*	*	*	*	*	*	*	*	*	*	*	*
=2	=2	=2	=2	=2	=2	=2	=2	=2	=2	=2	=2	=2	=2	=2	=2	=2	=2	=2	=2	=2	=2	=2	=2	=2	=2	=2	=2	=2	=2	=2	=2	=2	=2	=2	=2	=2
*	*	*	*2\right	*	*	*	*2\right	*	*	*	*	*	*	*	*	*	*	*rep	*	*	*	*	*	*	*	*	*	*	*	*	*	*	*2\right	*	*	*
!	!	!	!	!	!	!	!	!	!	!	!	!	!	!	!	!	!	!LO:TX:t=P:problem=mixed beam	!	!	!	!	!	!	!	!	!	!	!	!	!	!	!	!	!	!
4FF/	2.FF\	2a 2f 2c/	2F\	lu-	Bo-	.	2c\	2f/	2a/	lu-	.	.	2f] 2F/]	.	2.r	.	2.ryy	8FF/L	.	2.r	.	2.r	.	2.r	.	(2c/	.	(y2a/yy	.	(2a/	.	2.r	2cc 2a\	.	2.r	.
.	.	.	.	.	.	.	.	.	.	.	.	.	.	.	.	.	.	8F\J	.	.	.	.	.	.	.	.	.	.	.	.	.	.	.	.	.	.
*	*	*	*	*	*	*	*	*	*	*	*	*	*	*	*	*	*	*tremolo	*	*	*	*	*	*	*	*	*	*	*	*	*	*	*	*	*	*
4F\	.	.	.	.	.	.	.	.	.	.	.	.	.	.	.	.	.	8F\L	.	.	.	.	.	.	.	.	.	.	.	.	.	.	.	.	.	.
.	.	.	.	.	.	.	.	.	.	.	.	.	.	.	.	.	.	8F\	.	.	.	.	.	.	.	.	.	.	.	.	.	.	.	.	.	.
4F\	.	4f 4c 4A/	4F\	-dy	-ży	.	4A\	4f/	4f/	-dy	.	.	4f 4F/	.	.	.	.	8F\	.	.	.	.	.	.	.	4A/)	.	4f/)yy	.	4f/)	.	.	4a 4f/	.	.	.
.	.	.	.	.	.	.	.	.	.	.	.	.	.	.	.	.	.	8F\J	.	.	.	.	.	.	.	.	.	.	.	.	.	.	.	.	.	.
*	*	*	*	*	*	*	*	*	*	*	*	*	*	*	*	*	*	*Xtremolo	*	*	*	*	*	*	*	*	*	*	*	*	*	*	*	*	*	*
*	*	*	*	*	*	*	*	*	*	*	*	*	*	*	*	*	*	*Xrep	*	*	*	*	*	*	*	*	*	*	*	*	*	*	*	*	*	*
=3	=3	=3	=3	=3	=3	=3	=3	=3	=3	=3	=3	=3	=3	=3	=3	=3	=3	=3	=3	=3	=3	=3	=3	=3	=3	=3	=3	=3	=3	=3	=3	=3	=3	=3	=3	=3
!	!	!	!	!	!	!	!	!	!	!	!	!	!	!	!	!	!	!LO:TX:t=P:problem=mixed beam	!	!	!	!	!	!	!	!	!	!	!	!	!	!	!	!	!	!
4FF/	2.FF\	4.g 4.B-/	4.F\	u-	zbaw-	.	4.B-\	2.r	4.g/	u-	.	.	2.r	.	2.r	.	2.ryy	8FF/L	.	2.r	.	2.r	.	2.r	.	(>4.B-/	.	(y4.g/yy	.	(4.g/	.	2.r	(4.b- 4.g/	.	2.r	.
.	.	.	.	.	.	.	.	.	.	.	.	.	.	.	.	.	.	8F\J	.	.	.	.	.	.	.	.	.	.	.	.	.	.	.	.	.	.
4F/	.	.	.	.	.	.	.	.	.	.	.	.	.	.	.	.	.	4F\	.	.	.	.	.	.	.	.	.	.	.	.	.	.	.	.	.	.
.	.	8a 8c/	8F\	-niż-	-co	.	8c\	.	8a/	-niż-	.	.	.	.	.	.	.	.	.	.	.	.	.	.	.	8c/L	.	8a/Lyy	.	8a/L	.	.	8ccL 8a\	.	.	.
4F/	.	8b-L 8d/	8F\	-cie	Twe-	.	8d\	.	8b-/	-cie	.	.	.	.	.	.	.	4FF/	.	.	.	.	.	.	.	8d/	.	8b-/yy	.	8b-/	.	.	8dd 8b-\	.	.	.
.	.	8ccJ 8e/	8F\	się	-go	.	8e\	.	8cc/	się	.	.	.	.	.	.	.	.	.	.	.	.	.	.	.	8e/J)	.	8cc/J)yy	.	8cc/J)	.	.	8eeJ 8cc\)	.	.	.
*v	*v	*	*	*	*	*	*	*	*	*	*	*	*	*	*	*	*	*	*	*	*	*	*	*	*	*	*	*	*	*	*	*	*	*	*	*
=4	=4	=4	=4	=4	=4	=4	=4	=4	=4	=4	=4	=4	=4	=4	=4	=4	=4	=4	=4	=4	=4	=4	=4	=4	=4	=4	=4	=4	=4	=4	=4	=4	=4	=4	=4
*	*	*	*	*	*	*	*	*	*	*	*	*	*	*	*	*	*	*	*	*	*	*	*	*	*	*	*	*	*	*	*	*^	*	*	*
!	!	!	!	!	!	!	!	!	!	!	!	!LO:TX:t=P:problem=dwa łuki skierowane w górę	!	!	!	!	!	!	!	!	!	!	!	!	!	!	!	!	!	!	!	!	!	!	!	!
4F 4FF/	2b- 2g 2e/	(4F\	tro-	lu-	.	2e\	2g/	2b-/	tro-	.	.	(2g (2c/	.	2.r	.	2.ryy	4F\	.	2.r	.	2.r	.	2.r	.	(2e/	.	(y2b-/yy	.	(2b-/	.	2.r	2gg/	2cc\	.	2.r	.
4C 4CC/	.	4C/)	-ny	.	.	.	.	.	.	.	.	.	.	.	.	.	4C\	.	.	.	.	.	.	.	.	.	.	.	.	.	.	.	.	.	.	.
!	!	!	!	!	!LO:DY:b	!	!	!	!	!	!	!	!	!	!	!	!	!	!	!	!	!	!	!	!	!	!	!	!	!	!	!	!	!	!	!
8FL 8FF/	8a 8f/	8F\	.	-du	p	8f\	8f/	8a/	-ny	.	.	4f 4A/))	.	.	.	.	8FF/L	.	.	.	.	.	.	.	4f/)	.	4a/)yy	.	4a/)	.	.	4ff/	4cc\	.	.	.
8AA/J	8r	8r	.	.	.	8r	8r	8r	.	.	.	.	.	.	.	.	8AA/J	.	.	.	.	.	.	.	.	.	.	.	.	.	.	.	.	.	.	.
=5	=5	=5	=5	=5	=5	=5	=5	=5	=5	=5	=5	=5	=5	=5	=5	=5	=5	=5	=5	=5	=5	=5	=5	=5	=5	=5	=5	=5	=5	=5	=5	=5	=5	=5	=5	=5
*^	*	*	*	*	*	*	*	*	*	*	*	*^	*	*^	*	*	*	*	*	*	*	*	*^	*	*	*	*	*	*	*	*	*	*	*	*	*
!LO:N:vis=2	!	!	!	!	!	!	!	!	!	!	!	!	!	!	!	!	!	!	!	!	!	!	!LO:DY:rj	!	!	!	!	!LO:DY:rj	!	!	!	!	!	!	!	!	!	!	!	!
8C/L	2C\	2g 2e/	4C/	przed	u-	.	4c\	4e/	4g/	przed	.	.	4r	4ryy	.	4r	4ryy	.	2.ryy	8C\L	.	(2C/	p	2.r	.	(2g (2e/	2ryy	p	(8e/L	.	(y8g/Lyy	.	(8g/L	.	2.r	(2ee/	2g\	.	2.r	.
8E/	.	.	.	.	.	.	.	.	.	.	.	.	.	.	.	.	.	.	.	8E\	.	.	.	.	.	.	.	.	8c/	.	8c/yy	.	8c/	.	.	.	.	.	.	.
8G/	.	.	4C/	śmier-	-czyń	.	4e\	4e/	4g/	śmier-	.	.	4r	4ryy	.	4r	4ryy	.	.	8G\	.	.	.	.	.	.	.	.	8e/	.	8g/yy	.	8g/	.	.	.	.	.	.	.
8c/J	.	.	.	.	.	.	.	.	.	.	.	.	.	.	.	.	.	.	.	8c\J	.	.	.	.	.	.	.	.	8c/J	.	8c/Jyy	.	8c/J	.	.	.	.	.	.	.
4Bn 4BBn\	4ryy	4a-X 4f 4d/	4BBn/	-tel	go-	.	4d\	4f/	4a-X/	-tel-	.	.	4a-X^/	4f\	.	4fX/	4d\	.	.	4Bn\	.	4BBn/)	.	.	.	4a-X/))	4f\	.	8f^/L	.	8a-X^>/Lyy	.	8a-X^>/L	.	.	4ff/)	4a-X^\	.	.	.
.	.	.	.	.	.	.	.	.	.	.	.	.	.	.	.	.	.	.	.	.	.	.	.	.	.	.	.	.	8d/J)	.	8d/J)yy	.	8d/J)	.	.	.	.	.	.	.
*	*	*	*	*	*	*	*	*	*	*	*	*	*v	*v	*	*	*	*	*	*	*	*	*	*	*	*	*	*	*	*	*	*	*	*	*	*v	*v	*	*	*
*v	*v	*	*	*	*	*	*	*	*	*	*	*	*	*	*v	*v	*	*	*	*	*	*	*	*	*	*	*	*	*	*	*	*	*	*	*	*	*	*
!!LO:PB:g=original
=6	=6	=6	=6	=6	=6	=6	=6	=6	=6	=6	=6	=6	=6	=6	=6	=6	=6	=6	=6	=6	=6	=6	=6	=6	=6	=6	=6	=6	=6	=6	=6	=6	=6	=6	=6	=6
*	*^	*	*	*	*	*	*	*	*	*	*	*	*	*	*	*	*	*	*	*	*^	*	*	*	*	*	*	*	*	*	*	*	*^	*	*	*
!	!	!	!	!	!	!	!	!	!	!	!	!	!	!	!	!	!	!	!	!	!	!	!	!	!	!	!	!	!	!	!	!	!	!	!	!	!	!LO:TX:t=P:problem=zmiana kolejności głosów w partyturze	!
4c 4C\	8gL 8e/	4ryy	4C/	-ni-	-dne-	.	4c\	(8e/L	(8g/L	-ni-	.	.	8g\L	.	8e\L	.	2.ryy	(4c\	.	[4C/	.	4r	4ryy	.	(8gL 8e/	4ryy	.	(8e/L	.	(8g/L	.	(8g/L	.	4r	(8eeL 8g/	2ryy	.	4r	.
.	8f#XJ 8d#X/	.	.	.	.	.	.	8d#X/J)	8f#X/J)	.	.	.	8aJ 8f#X\	.	8f#J 8d#X\	.	.	.	.	.	.	.	.	.	8f#XJ 8d#X/	.	.	8d#X/J	.	8f#X/J	.	8f#X/J)	.	.	8dd#XJ 8f#X/	.	.	.	.
8C\L	4g/	8e\L	8C/L	.	-mi	.	4c\	8e/L	4g/	-ków	.	.	4g\	<	4e\	.	.	8C\L)	.	8C/L]	.	4r	4ryy	.	4g 4e/)	4ryy	.	8e/L)	.	8g/L)	.	8g/L	.	4r	8ee 8g/)	.	.	4r	.
8E\	.	8c\J	8E/J	-ków	.	.	.	8c/J	.	.	.	.	.	.	.	.	.	8E\J	.	8E/J	.	.	.	.	.	.	<	8c/J	<	(8cc/	<	8cc|/	<	.	8r	.	.	.	f
!	!	!	!	!	!	!	!	!	!	!	!	!LO:DY:rj	!	!	!	!	!	!	!	!	!	!	!	!	!LO:SIC:v:n=2:s=4fn	!	!	!	!	!	!	!	!	!	!	!	!	!	!
8F\	8aL 8f#/	4ryy	8F\	o-	nas	<	8d\	8f/	8a\	o-	.	f <	4a 4f\	[[	4r	.	.	8F\L	<	8F\L	.	8d/L	4A\	<	8a/L	4f#\	.	4f/	[[	8a/	.	(8a/	.	(8aa\L	4ddn/	8a\L	.	(8aa\L	.
8D\J	8ddJ 8a 8f#/	.	8D\	-kiem	no-	[[	8A\	8f/	8dd\	-kiem	.	[[	.	.	.	.	.	8D\J	.	8D\J	.	8f/J	.	[[	8dd/J	.	[[	.	.	8f#/J)	[[	8dd/J)	[[	8ddd\J)	.	8f#\J	.	8ddd\J)	.
*	*	*	*	*	*	*	*	*	*	*	*	*	*	*	*	*	*	*	*	*	*	*	*	*	*	*	*	*	*	*	*	*	*	*	*v	*v	*	*	*
=7	=7	=7	=7	=7	=7	=7	=7	=7	=7	=7	=7	=7	=7	=7	=7	=7	=7	=7	=7	=7	=7	=7	=7	=7	=7	=7	=7	=7	=7	=7	=7	=7	=7	=7	=7	=7	=7	=7
*	*	*	*	*	*	*	*	*	*	*	*	*	*^	*	*	*	*	*	*	*	*	*	*	*	*	*	*	*	*	*	*	*	*	*	*	*	*	*
.	.	.	.	.	.	.	.	.	.	.	.	.	.	.	.	.	.	.	.	[	.	.	.	.	.	.	.	.	.	.	.	.	.	.	.	.	.	.	.
*	*	*	*	*	*	*	*	*	*	*	*	*	*	*2\right	*	*	*	*	*tremolo	*	*2\right	*	*	*2\right	*	*	*2\right	*	*	*	*	*	*	*	*	*	*	*	*
!	!	!	!	!	!	!	!	!	!	!	!	!LO:DY:rj	!	!	!LO:DY:rj	!	!	!	!	!LO:DY:rj:a	!	!	!	!	!LO:DY:rj	!	!	!LO:DY:rj	!	!	!	!LO:DY:rj	!	!LO:DY:rj	!	!	!LO:DY:rj	!	!
2G\	8ccL 8g 8e/	4ryy	8G\L	u-	-we-	f	8G/	8e/	8cc\	u-	.	f	2g/	2g\	f	2.r	.	2.ryy	8G\L	f	(2G\	.	(2e/	(2c\	f	8cc/L	2e\	f	8e/L	.	8e/L	f	8cc'/L	f	8ccc'\L	2cc 2e/	f	8ccc'\L	.
.	8gJ 8e/	.	8G\J	-ta-	-go	.	8c\	8e/	8g/	-ta-	.	.	.	.	.	.	.	.	8G\	.	.	.	.	.	.	8g/J	.	.	8g/J	.	8g/J	.	8g'/J	.	8gg'\J	.	.	8gg'\J	.
.	4.ee/	4cc 4g\	(4G\	-io-	cu-	.	(4c\	(4e/	(4.ee\	-io-	.	.	.	.	.	.	.	.	8G\	.	.	.	.	.	.	4.ee/	.	.	8e/L	.	8cc/L	.	(4.ee\	.	(4.eee\	.	.	(4.eee\	.
.	.	.	.	.	.	.	.	.	.	.	.	.	.	.	.	.	.	.	8G\J	.	.	.	.	.	.	.	.	.	8g/	.	8g/	.	.	.	.	.	.	.	.
*	*	*	*	*	*	*	*	*	*	*	*	*	*	*	*	*	*	*	*Xtremolo	*	*	*	*	*	*	*	*	*	*	*	*	*	*	*	*	*	*	*	*
4G 4GG/	.	4bn 4f\	4GG/)	.	.	.	4Bn\)	4f/)	.	.	.	.	4g/	4f\	.	.	.	.	8GG/L	.	4GG/)	.	4f/)	4Bn\)	.	.	4f\	.	8f/	.	8bn/	.	.	.	.	4bn 4f/	.	.	.
.	8dd/	.	.	.	.	.	.	.	8dd\)	.	.	.	.	.	.	.	.	.	8GG/J	.	.	.	.	.	.	8dd/	.	.	8g/J	.	8g/J	.	8dd\)	.	8ddd\)	.	.	8ddd\)	.
*	*v	*v	*	*	*	*	*	*	*	*	*	*	*v	*v	*	*	*	*	*	*	*	*	*	*	*	*v	*v	*	*	*	*	*	*	*	*	*	*	*	*
=8	=8	=8	=8	=8	=8	=8	=8	=8	=8	=8	=8	=8	=8	=8	=8	=8	=8	=8	=8	=8	=8	=8	=8	=8	=8	=8	=8	=8	=8	=8	=8	=8	=8	=8	=8	=8
*	*	*	*	*	*	*	*	*	*	*	*	*	*	*^	*	*	*	*	*	*	*	*	*	*	*	*	*	*	*	*	*	*	*	*	*	*
4.G 4.C\	4.cc 4.e/	4C/	-ny	-du	.	4c\	4e/	4cc\	-ny	.	.	4.g 4.c/	.	4r	4ryy	.	2.ryy	4C/	.	4.C/	.	4.e/	4.c\	.	4.cc 4.e/	.	4.e/	.	4.cc\	.	4.cc\	.	4.ccc\	4.cc 4.e/	.	4.ccc\	.
.	.	4r	.	.	.	4r	4r	4r	.	.	.	.	.	4r	4ryy	.	.	2C/	.	.	.	.	.	.	.	.	.	.	.	.	.	.	.	.	.	.	.
8r	8b-XL 8g/	.	.	.	.	.	.	.	.	.	.	(8b-L 8g\	.	.	.	.	.	.	.	8r	.	8r	8ryy	.	(8b-XL 8g/	.	8r	.	8r	.	8r	.	8r	8r	.	8r	.
4r	8a 8f/	4r	.	.	.	4r	4r	4r	.	.	.	8a 8f\	.	8r	8ryy	.	.	.	.	4r	.	4r	4ryy	.	8a 8f/	.	4r	.	4r	.	4r	.	4r	4r	.	4r	.
.	8gJ 8c/	.	.	.	.	.	.	.	.	.	.	8gJ 8c\)	.	8e/	8e\	.	.	.	.	.	.	.	.	.	8gJ 8c/)	.	.	.	.	.	.	.	.	.	.	.	.
*	*	*	*	*	*	*	*	*	*	*	*	*	*	*	*	*	*	*	*	*	*	*v	*v	*	*	*	*	*	*	*	*	*	*	*	*	*	*
=9	=9	=9	=9	=9	=9	=9	=9	=9	=9	=9	=9	=9	=9	=9	=9	=9	=9	=9	=9	=9	=9	=9	=9	=9	=9	=9	=9	=9	=9	=9	=9	=9	=9	=9	=9	=9
*^	*	*	*	*	*	*	*	*	*	*	*	*	*	*	*	*	*	*	*	*	*	*	*	*	*	*	*	*	*	*	*	*	*	*	*	*
!	!	!	!	!	!	!LO:DY:rj	!	!	!	!	!	!LO:DY:rj:b	!	!LO:DY:rj	!	!	!	!	!LO:TX:t=P:problem=mixed beam	!LO:DY:rj	!	!	!	!	!	!	!	!	!	!	!	!LO:DY:rj	!	!	!LO:DY:rj	!	!
4FF/	2.FF\	4a 4f 4c/	4F\	Pod	Wstąp	p	4c\	4f/	4a/	Pod	.	p	2f 2F/	p	4fX/	4fX\	.	2.ryy	8FF/L	p	2.r	.	2.r	.	2.r	.	(4c/	.	(y4a/yy	py	(4a/	p	2.r	(4cc 4a\	p	2.r	.
.	.	.	.	.	.	.	.	.	.	.	.	.	.	.	.	.	.	.	8F\J	.	.	.	.	.	.	.	.	.	.	.	.	.	.	.	.	.	.
*	*	*	*	*	*	*	*	*	*	*	*	*	*	*	*	*	*	*	*tremolo	*	*	*	*	*	*	*	*	*	*	*	*	*	*	*	*	*	*
4F/	.	4b- 4f 4d/	4F\	po-	w_nas	.	4d\	4f/	4b-/	po-	.	.	.	.	4r	4ryy	.	.	8F\L	.	.	.	.	.	.	.	4d/	.	4b-/yy	.	4b-/	.	.	4dd 4b-\	.	.	.
.	.	.	.	.	.	.	.	.	.	.	.	.	.	.	.	.	.	.	8F\	.	.	.	.	.	.	.	.	.	.	.	.	.	.	.	.	.	.
4F/	.	4a 4f 4c/	4F\	-sta-	na-	.	4c\	4f/	4a/	-sta-	.	.	[4f [4F/	.	4r	4ryy	.	.	8F\	.	.	.	.	.	.	.	4c/)	.	4a/)yy	.	4a/)	.	.	4cc 4a\)	.	.	.
.	.	.	.	.	.	.	.	.	.	.	.	.	.	.	.	.	.	.	8F\J	.	.	.	.	.	.	.	.	.	.	.	.	.	.	.	.	.	.
*	*	*	*	*	*	*	*	*	*	*	*	*	*	*	*	*	*	*	*Xtremolo	*	*	*	*	*	*	*	*	*	*	*	*	*	*	*	*	*	*
*	*	*	*	*	*	*	*	*	*	*	*	*	*	*	*v	*v	*	*	*	*	*	*	*	*	*	*	*	*	*	*	*	*	*	*	*	*	*
=10	=10	=10	=10	=10	=10	=10	=10	=10	=10	=10	=10	=10	=10	=10	=10	=10	=10	=10	=10	=10	=10	=10	=10	=10	=10	=10	=10	=10	=10	=10	=10	=10	=10	=10	=10	=10
*rep	*rep	*	*	*	*	*	*	*	*	*	*	*	*	*	*	*	*	*	*	*	*	*	*	*	*	*	*	*	*	*	*	*	*	*	*	*
!	!	!	!	!	!	!	!	!	!	!	!	!	!	!	!	!	!	!LO:TX:t=P:problem=mixed beam	!	!	!	!	!	!	!	!	!	!	!	!	!	!	!	!	!	!
4FF/	2.FF\	2a 2f 2c/	2F\	-cia-	-sze-	.	2c\	2f/	2a/	-cia-	.	.	2f] 2F/]	.	2.r	.	2.ryy	8FF/L	.	2.r	.	2.r	.	2.r	.	(2c/	.	(y2a/yy	.	(2a/	.	2.r	(2cc 2a/	.	2.r	.
.	.	.	.	.	.	.	.	.	.	.	.	.	.	.	.	.	.	8F\J	.	.	.	.	.	.	.	.	.	.	.	.	.	.	.	.	.	.
*	*	*	*	*	*	*	*	*	*	*	*	*	*	*	*	*	*	*tremolo	*	*	*	*	*	*	*	*	*	*	*	*	*	*	*	*	*	*
4F/	.	.	.	.	.	.	.	.	.	.	.	.	.	.	.	.	.	8F\L	.	.	.	.	.	.	.	.	.	.	.	.	.	.	.	.	.	.
.	.	.	.	.	.	.	.	.	.	.	.	.	.	.	.	.	.	8F\	.	.	.	.	.	.	.	.	.	.	.	.	.	.	.	.	.	.
4F/	.	4f 4c 4A/	4F\	-mi	-mi	.	4A\	4f/	4f/	-mi	.	.	4f 4F/	.	.	.	.	8F\	.	.	.	.	.	.	.	4A/)	.	4f/)yy	.	4f/)	.	.	4a 4f/)	.	.	.
.	.	.	.	.	.	.	.	.	.	.	.	.	.	.	.	.	.	8F\J	.	.	.	.	.	.	.	.	.	.	.	.	.	.	.	.	.	.
*Xrep	*Xrep	*	*	*	*	*	*	*	*	*	*	*	*	*	*	*	*	*Xtremolo	*	*	*	*	*	*	*	*	*	*	*	*	*	*	*	*	*	*
=11	=11	=11	=11	=11	=11	=11	=11	=11	=11	=11	=11	=11	=11	=11	=11	=11	=11	=11	=11	=11	=11	=11	=11	=11	=11	=11	=11	=11	=11	=11	=11	=11	=11	=11	=11	=11
*rep	*rep	*	*	*	*	*	*	*	*	*	*	*	*	*	*	*	*	*	*	*	*	*	*	*	*	*	*	*	*	*	*	*	*	*	*	*
!	!	!	!	!	!	!	!	!	!	!	!	!	!	!	!	!	!	!LO:TX:t=P:problem=mixed beam	!	!	!	!	!	!	!	!	!	!	!	!	!	!	!	!	!	!
4FF/	2.FF\	4.g 4.B-/	2F\	wi-	wła-	.	(4.B-\	2.r	(4.g/	wi-	.	.	2.r	.	2.r	.	2.ryy	8FF/L	.	2.r	.	2.r	.	2.r	.	(>4.B-/	.	(y4.g/yy	.	(4.g/	.	2.r	(4.b- 4.g/	.	2.r	.
.	.	.	.	.	.	.	.	.	.	.	.	.	.	.	.	.	.	8F\J	.	.	.	.	.	.	.	.	.	.	.	.	.	.	.	.	.	.
4F/	.	.	.	.	.	.	.	.	.	.	.	.	.	.	.	.	.	4F\	.	.	.	.	.	.	.	.	.	.	.	.	.	.	.	.	.	.
.	.	8aL 8c/	.	.	.	.	8c\)	.	8a/)	.	.	.	.	.	.	.	.	.	.	.	.	.	.	.	.	8c/L	.	8a/Lyy	.	8a/L	.	.	8ccL 8a/	.	.	.
4F/	.	8b- 8d/	8F\	na	-dnij	.	8d\	.	8b-/	-na	.	.	.	.	.	.	.	4FF/	.	.	.	.	.	.	.	8d/	.	8b-/yy	.	8b-/	.	.	8dd 8b-/	.	.	.
.	.	8ccJ 8e/	8F\	i	ser-	.	8e\	.	8cc/	i	.	.	.	.	.	.	.	.	.	.	.	.	.	.	.	8e/J)	.	8cc/J)yy	.	8cc/J)	.	.	8eeJ 8cc/)	.	.	.
*Xrep	*Xrep	*	*	*	*	*	*	*	*	*	*	*	*	*	*	*	*	*	*	*	*	*	*	*	*	*	*	*	*	*	*	*	*	*	*	*
*v	*v	*	*	*	*	*	*	*	*	*	*	*	*	*	*	*	*	*	*	*	*	*	*	*	*	*	*	*	*	*	*	*	*	*	*	*
!!LO:PB:g=original
=12	=12	=12	=12	=12	=12	=12	=12	=12	=12	=12	=12	=12	=12	=12	=12	=12	=12	=12	=12	=12	=12	=12	=12	=12	=12	=12	=12	=12	=12	=12	=12	=12	=12	=12	=12
*	*	*	*	*	*	*	*	*	*	*	*	*	*	*	*	*	*	*	*	*	*	*	*	*	*	*	*	*	*	*	*	*^	*	*	*
4F 4FF/	2b- 2g 2e/	(4F\	chle-	-ca-	.	2e\	2g/	2b-/	chle-	.	.	(2g 2c/	.	2.r	.	2.ryy	4F\	.	2.r	.	2.r	.	2.r	.	(2e/	.	(y2b-/yy	.	(2b-/	.	2.r	2gg/	2cc\	.	2.r	.
4C/	.	4C\)	.	.	.	.	.	.	.	.	.	.	.	.	.	.	4C/	.	.	.	.	.	.	.	.	.	.	.	.	.	.	.	.	.	.	.
4F 4FF/	4a 4f/	4F\	-ba	-mi	.	4f\	4f/	4a/	-ba	.	.	4f 4A/)	.	.	.	.	4FF/	.	.	.	.	.	.	.	4f/)	.	4a/)yy	.	4a/)	.	.	4gg/	4cc\	.	.	.
=13	=13	=13	=13	=13	=13	=13	=13	=13	=13	=13	=13	=13	=13	=13	=13	=13	=13	=13	=13	=13	=13	=13	=13	=13	=13	=13	=13	=13	=13	=13	=13	=13	=13	=13	=13	=13
*	*	*	*	*	*	*	*	*	*	*	*	*	*	*^	*	*	*	*	*	*	*	*	*	*	*	*	*	*	*	*	*	*	*	*	*	*
!	!	!	!	!	!LO:DY:rj	!	!	!	!	!	!LO:DY:rj	!	!LO:DY:rj	!	!	!	!	!	!LO:DY:rj	!	!	!	!LO:DY:rj	!	!	!	!	!	!LO:DY:rj	!	!LO:DY:rj	!	!	!	!	!	!
[4F\	2a 2f 2c/	4F\	Bóg	I	f	4c\	4f/	4a/	Bóg	.	f	2f 2A/	f	4r	4ryy	.	2.ryy	[4F\	f	[4F\	.	4r	f	4r	.	2f/	.	2a/yy	fy	2a/	f	4r	4ff/	2cc\	.	4r	.
!	!	!	!	!	!	!	!	!	!	!	!	!	!	!	!	!	!	!	!	!	!	!	!	!	!	!	!	!	!	!	!	!	!	!	!	!	!LO:DY:rj
8F\L]	.	(8F\L	stą-	mie-	.	4c\	4f/	4a/	stą-	.	.	.	.	4r	4ryy	.	.	8F\L]	.	8F\L]	.	4f 4A\	.	4a 4f/	.	.	.	.	.	.	.	4aa'\	2ff/	.	.	4aa\	f
8E\	.	8E\J)	.	.	.	.	.	.	.	.	.	.	.	.	.	.	.	8E\	.	8E'\	.	.	.	.	.	.	.	.	.	.	.	.	.	.	.	.	.
!	!	!	!	!	!	!	!	!	!	!	!	!	!	!	!	!LO:DY:rj	!	!	!	!	!	!	!	!	!	!	!	!	!	!	!	!	!	!	!	!	!
8D\	4a 4f 4d/	(8D\L	-pił	-szkaj	.	4d\	4f/	4a/	-pił	.	.	[4a [>4f\	.	[4d/	[4d\	f	.	8D\	.	8D'\	.	4f 4A\	.	4a 4f/	.	[4f/	.	(y4a/yy	.	(4a/	.	(4aa'\	.	4dd\	.	((4aa\	.
8C\J	.	8C\J)	.	.	.	.	.	.	.	.	.	.	.	.	.	.	.	8C\J	.	8C'\J	.	.	.	.	.	.	.	.	.	.	.	.	.	.	.	.	.
=14	=14	=14	=14	=14	=14	=14	=14	=14	=14	=14	=14	=14	=14	=14	=14	=14	=14	=14	=14	=14	=14	=14	=14	=14	=14	=14	=14	=14	=14	=14	=14	=14	=14	=14	=14	=14	=14
*	*	*	*	*	*	*	*	*	*	*	*	*^	*	*	*	*	*	*	*	*	*	*^	*	*^	*	*	*	*	*	*	*	*	*	*	*	*	*
8BB-/L	8ddL 8f 8d/	(8BB-/L	z_Nie-	z_na-	.	4d\	8f/L	(8dd\L	z_Nie-	.	.	8a]L 8f\]	4ryy	.	8d/L]	8d\L]	.	2.ryy	8BB-/L	.	8BB-'/L	.	8f/L	8B-\L	.	8dd/L	8f\L	.	8f/L]	.	8dd\Lyy	.	8dd\L	.	8ddd\L	8ff/L	4dd\	.	8ddd\L)	.
8AA/J	8ccJ 8f#X 8d/	8AA/J)	.	.	.	.	8f#X/J	8cc\J)	.	.	.	8aJ 8f#X'\	.	.	8d'/J	8d\J	.	.	8AA/J	.	8AA'/J	.	8f#X/J	8c\J	.	8cc/J	8f#X\J	.	(8f#X/J	.	8cc\Jyy	.	8cc\J	.	8ccc\J	8ff#X/J	.	.	8ccc\J	.
*	*	*	*	*	*	*	*	*	*	*	*	*	*	*	*	*2\right	*	*	*	*	*	*	*	*	*	*	*	*	*	*	*	*	*	*	*	*	*	*	*	*
4GG/	4b- 4g 4d/	4GG/	-ba	-mi	.	4d\	4g/	4b-\	-ba	.	.	2g/	2g\	.	2d/	2d\	.	.	4GG/	.	4GG/	.	4g 4B-\	4ryy	.	4b-/	4g\	.	2g/)	.	4b-\)yy	.	4b-\)	.	4bb-\)	2gg/	2dd\	.	4bb-\)	.
4BB-/	8ddL 8b- 8g/	4BB-/	Bóg	I	.	8B-\L	4g/	(8dd\L	Bóg	.	.	.	.	.	.	.	.	.	4BB-/	.	4BB-/	.	4d/	4B-\	.	(8ddL 8b-\	4ryy	.	.	.	(y8dd\Lyy	.	(8dd\L	.	(8ddd\L	.	.	.	(8ddd\L	.
.	8b-J 8g 8d/	.	.	.	.	8d\J	.	8b-\J)	.	.	.	.	.	.	.	.	.	.	.	.	.	.	.	.	.	8b-J 8g\)	.	.	.	.	8b-\J)yy	.	8b-\J)	.	8bb-\J)	.	.	.	8bb-\J)	.
*	*	*	*	*	*	*	*	*	*	*	*	*	*	*	*v	*v	*	*	*	*	*	*	*	*	*	*	*	*	*	*	*	*	*	*	*	*	*	*	*	*
=15	=15	=15	=15	=15	=15	=15	=15	=15	=15	=15	=15	=15	=15	=15	=15	=15	=15	=15	=15	=15	=15	=15	=15	=15	=15	=15	=15	=15	=15	=15	=15	=15	=15	=15	=15	=15	=15	=15	=15
!LO:TX:t=1ma	!	!	!	!	!	!	!	!	!	!	!	!	!	!	!	!	!	!	!	!	!	!	!	!	!	!	!	!	!	!	!	!	!	!	!	!	!	!	!
*>A1	*>A1	*>A1	*>A1	*>A1	*>A1	*>A1	*>A1	*>A1	*>A1	*>A1	*>A1	*>A1	*>A1	*>A1	*>A1	*>A1	*>A1	*>A1	*>A1	*>A1	*>A1	*>A1	*>A1	*>A1	*>A1	*>A1	*>A1	*>A1	*>A1	*>A1	*>A1	*>A1	*>A1	*>A1	*>A1	*>A1	*>A1	*>A1	*>A1
*	*^	*	*	*	*	*	*	*	*	*	*	*	*	*	*	*	*	*	*	*	*	*	*	*	*	*	*	*	*	*	*	*	*	*	*	*	*	*	*
*	*	*^	*	*	*	*	*	*	*	*	*	*	*	*	*	*	*	*	*	*	*	*	*	*	*	*	*	*	*	*	*	*	*	*	*	*	*	*	*	*
*	*	*	*2\right	*	*	*	*	*	*	*	*	*	*	*	*	*	*	*	*	*	*	*	*	*	*	*	*	*	*	*	*	*	*	*	*	*	*	*	*	*	*
2C/	4a 4f/	4ryy	2c\	2C/	stą-	.	.	2c\	(4f/	(4a/	stą-	.	.	4a/	4fn\	.	2.r	.	2.ryy	2C/	.	2C/	.	2c/	4A\	.	(4a/	4f\	.	(>[4fn/	.	(y4a/yy	.	(4a/	.	4aa\	(4ff/	2cc\	.	4aa\	.
.	4g/	8f\L	.	.	.	.	.	.	8f/L	4g/)	.	.	.	2g 2c/	4ryy	.	.	.	.	.	.	.	.	.	[>4G\	.	4g/	8f\L	.	8f/L]	.	4g/yy	.	4g/	.	4gg\	8ff/L	.	.	4gg\	.
.	.	8e\	.	.	.	.	.	.	8e/J)	.	.	.	.	.	.	.	.	.	.	.	.	.	.	.	.	.	.	8e\	.	8e/	.	.	.	.	.	.	8ee/	.	.	.	.
4c 4C\	4cc/	8d\	4ryy	4C/	-pił	.	.	4B-\	(8d/L	4cc/	-pił	.	.	.	4ryy	.	.	.	.	4C 4CC/	.	4C/	.	4B-/	4G\]	.	4cc/)	8d\	.	8d/	.	4cc/)yy	.	4cc/)	.	4ccc\	8dd/	4b-\	.	4ccc\	.
.	.	8e\J	.	.	.	.	.	.	8e/J)	.	.	.	.	.	.	.	.	.	.	.	.	.	.	.	.	.	.	8e\J	.	8e/J)	.	.	.	.	.	.	8ee/J)	.	.	.	.
*	*	*	*	*	*	*	*	*	*	*	*	*	*	*	*	*	*	*	*	*	*	*	*	*v	*v	*	*	*	*	*	*	*	*	*	*	*	*	*	*	*	*
*	*v	*v	*v	*	*	*	*	*	*	*	*	*	*	*v	*v	*	*	*	*	*	*	*	*	*	*	*v	*v	*	*	*	*	*	*	*	*	*	*	*	*	*
=16	=16	=16	=16	=16	=16	=16	=16	=16	=16	=16	=16	=16	=16	=16	=16	=16	=16	=16	=16	=16	=16	=16	=16	=16	=16	=16	=16	=16	=16	=16	=16	=16	=16	=16	=16	=16
4F\	4b- 4g 4e/	4F\	z_Nie-	.	.	4G/	4e/	4b-/	z_Nie-	.	.	4g 4c/	.	2.r	.	2.ryy	4.F 4.FF/	.	4.F\	.	(4B- (4G/	.	4b- 4e/	.	(4e/	.	(y4b-/yy	.	(4b-/	.	4bb-\	(4ee/	4g\	.	4bb-\	.
*	*Xbrackettup	*	*	*	*	*	*	*	*	*	*	*	*	*	*	*	*	*	*	*	*	*	*	*	*	*	*Xbrackettup	*	*Xbrackettup	*	*	*	*	*	*	*
8F\	12a 12f/	8F\	-ba	.	.	8F/	8f/	8a/	-ba	.	.	8f 8A/	.	.	.	.	.	.	.	.	8A 8F/))	.	8a 8f/	.	8f/)	.	12a/)yy	.	12a/)	.	8aa\	8ff/)	8f\	.	8aa\	.
.	12c/L	.	.	.	.	.	.	.	.	.	.	.	.	.	.	.	.	.	.	.	.	.	.	.	.	.	12c'/Lyy	.	12c'/L	.	.	.	.	.	.	.
8r	.	8r	.	.	.	8r	8r	8r	.	.	.	8r	.	.	.	.	8r	.	8r	.	8r	.	8r	.	8r	.	.	.	.	.	8r	8r	8r	.	8r	.
.	12d/J	.	.	.	.	.	.	.	.	.	.	.	.	.	.	.	.	.	.	.	.	.	.	.	.	.	12d'/Jyy	.	12d'/J	.	.	.	.	.	.	.
4r	12e/L	4r	.	.	.	4r	4r	4r	.	.	.	4r	.	.	.	.	4r	.	4r	.	4r	.	4r	.	4r	.	12e'/Lyy	.	12e'/L	.	4r	4r	4r	.	4r	.
.	12f/	.	.	.	.	.	.	.	.	.	.	.	.	.	.	.	.	.	.	.	.	.	.	.	.	.	12f'/yy	.	12f'/	.	.	.	.	.	.	.
.	12g/J	.	.	.	.	.	.	.	.	.	.	.	.	.	.	.	.	.	.	.	.	.	.	.	.	.	12g'/Jyy	.	12g'/J	.	.	.	.	.	.	.
=17:|!	=17:|!	=17:|!	=17:|!	=17:|!	=17:|!	=17:|!	=17:|!	=17:|!	=17:|!	=17:|!	=17:|!	=17:|!	=17:|!	=17:|!	=17:|!	=17:|!	=17:|!	=17:|!	=17:|!	=17:|!	=17:|!	=17:|!	=17:|!	=17:|!	=17:|!	=17:|!	=17:|!	=17:|!	=17:|!	=17:|!	=17:|!	=17:|!	=17:|!	=17:|!	=17:|!	=17:|!
!LO:TX:t=2da	!	!	!	!	!	!	!	!	!	!	!	!	!	!	!	!	!	!	!	!	!	!	!	!	!	!	!	!	!	!	!	!	!	!	!	!
*>A2	*>A2	*>A2	*>A2	*>A2	*>A2	*>A2	*>A2	*>A2	*>A2	*>A2	*>A2	*>A2	*>A2	*>A2	*>A2	*>A2	*>A2	*>A2	*>A2	*>A2	*>A2	*>A2	*>A2	*>A2	*>A2	*>A2	*>A2	*>A2	*>A2	*>A2	*>A2	*>A2	*>A2	*>A2	*>A2	*>A2
*	*^	*	*	*	*	*	*	*	*	*	*	*^	*	*	*	*	*	*	*	*	*^	*	*^	*	*	*	*	*	*	*	*	*	*	*	*	*
*	*	*^	*	*	*	*	*	*	*	*	*	*	*	*	*	*	*	*	*	*	*	*	*	*	*	*	*	*	*	*	*	*	*	*	*	*	*	*	*	*
2C/	4a/	4f\	2c\	2C/	.	miesz-	.	2c\	(4f/	(4a/	.	miesz-	.	4a/	4f\	.	2.r	.	2.ryy	2C/	.	2C/	.	2c/	4A\	.	4a/	4f\	.	(>4f/	.	4a/yy	.	4a/	.	4aa\	(4ff/	2cc\	.	4aa\	.
*	*	*	*	*	*	*	*	*	*	*	*	*	*	*	*	*	*	*	*	*	*	*	*	*	*	*	*	*	*	*	*	*	*	*	*	*2\right	*	*	*	*2\right	*
.	2g/	8f\L	.	.	.	.	.	.	8f/L	4g/)	.	.	.	2g 2c/	4ryy	.	.	.	.	.	.	.	.	.	2G\	.	2a/	8f\L	.	8f/L	.	2g/yy	.	2g/	.	2gg\	8ff/L	.	.	2gg\	.
.	.	8e\	.	.	.	.	.	.	8e/J)	.	.	.	.	.	.	.	.	.	.	.	.	.	.	.	.	.	.	8e\	.	8e/	.	.	.	.	.	.	8ee/	.	.	.	.
4C 4CC/	.	8d\	4ryy	4C/	.	-kaj	.	4B-\	(8d/L	4g/	.	-kaj	.	.	4ryy	.	.	.	.	4C 4CC/	.	4C/	.	4B-/	.	.	.	8d\	.	8d/	.	.	.	.	.	.	8dd/	4b-\	.	.	.
.	.	8e\J	.	.	.	.	.	.	8e/J)	.	.	.	.	.	.	.	.	.	.	.	.	.	.	.	.	.	.	8e\J	.	8e/J)	.	.	.	.	.	.	8ee/J)	.	.	.	.
*	*	*	*	*	*	*	*	*	*	*	*	*	*	*	*	*	*	*	*	*	*	*	*	*v	*v	*	*	*	*	*	*	*	*	*	*	*	*	*	*	*	*
*	*v	*v	*v	*	*	*	*	*	*	*	*	*	*	*v	*v	*	*	*	*	*	*	*	*	*	*	*v	*v	*	*	*	*	*	*	*	*	*	*	*	*	*
=18	=18	=18	=18	=18	=18	=18	=18	=18	=18	=18	=18	=18	=18	=18	=18	=18	=18	=18	=18	=18	=18	=18	=18	=18	=18	=18	=18	=18	=18	=18	=18	=18	=18	=18	=18	=18
2.F 2.FF\	2g 2e 2B-/	2F\	.	z_na-	.	2B-\	2e/	2g/	.	z_na-	.	2g 2c/	.	2.r	.	2.ryy	2.F 2.FF/	.	2.F\	.	2B- 2G/	.	2g 2e/	.	(2e/	.	(y2g/yy	.	(2g/	.	2gg\	(2ee/	2b-\	.	(2gg\	.
.	4f 4A/	4F\	.	-mi	.	4A\	4f/	4f/	.	-mi	.	4f 4A/	.	.	.	.	.	.	.	.	4A 4F/	.	4f/	.	4f/)	.	4f/)yy	.	4f/)	.	4ff\	4ff/)	4a\	.	4ff\)	.
*	*	*	*	*	*	*	*	*	*	*	*	*	*	*	*	*	*	*	*	*	*	*	*	*	*	*	*	*	*	*	*	*v	*v	*	*	*
==	==	==	==	==	==	==	==	==	==	==	==	==	==	==	==	==	==	==	==	==	==	==	==	==	==	==	==	==	==	==	==	==	==	==	==
*-	*-	*-	*-	*-	*-	*-	*-	*-	*-	*-	*-	*-	*-	*-	*-	*-	*-	*-	*-	*-	*-	*-	*-	*-	*-	*-	*-	*-	*-	*-	*-	*-	*-	*-	*-
!!!system-decoration: {(p1,p2,p3)}{(p4,p5,p6)}<p7>{(p8,p9)}<p10,p11>{(p12,p13)}{g1}{(p18)}
!!!RDF**kern: > = above
!!!RDF**kern: < = below
!!!RDF**kern: | = vertical stroke
!!!ENC: Andrzej Kubiczek
!!!END: 2021-04-25
!!!ENC: Krzysztof Stępień
!!!END: 2021-04-08
